X:1
T:How merrily we live - East
T:#
%%score [ 1 2 3 ] { ( 4 5 ) | ( 6 7 ) }
L:1/8
Q:1/4=126
M:4/4
K:G
V:1 treble nm="Soprano I" snm="S1"
V:2 treble nm="Soprano II" snm="S2"
V:3 treble nm="Alto" snm="A"
V:4 treble nm="Practice"
V:5 treble 
V:6 bass 
V:7 bass 
V:1
 G4 BAB"^How merrily we live"c | d4 c4 | B3 c d2"^Michael East\n(c.1580-1648)" B2 | %3
w: How mer- ri- ly we|live that|shep- herds be, we|
[M:4/4] A2 G2 A2 A2 | B2 B2 cBcd | e8 | z2 d2 d2 =B2 | A2 G2 G2 F2 | G2 de d2 Bc | B2 de d2 Bc | %10
w: live that shep- herds|be, how mer- ri- ly we|live|that shep- herds|be, that shep- herds|be, roun- de- lays still we|sing, roun- de- lays still we|
 B4 z4 | z2 E=F E2 GG | F2 G2 G2 F2 | G2 Bc B2 dd |[M:3/2] d2 B2 A2 A2 B4 |[M:4/4] z2 e3 ded x | %16
w: sing,|roun- de- lays still we|sing with mer- ry|glee, roun- de- lays still we|sing with mer- ry glee,|On the plea- sant|
[M:4/4] e2 d2 c3 A | B2 B2 ^c4 | z2 A3 AAA | A2 A2 G2 B2 | A3 A B4 | z2 G4 A2- | A2 B2 c2 B2 | %23
w: downs where as our|flocks we see,|on the plea- sant|downs where as our|flocks we see,|we feel|* no cares, we|
[M:3/2] d4 ^c2 d4 c2 | d4 D4 E4 |[M:4/4] F4 G4 x4 |[M:3/2] A2 G2 F2 G4 F2 |[M:4/4] G8 x4 | %28
w: fear not for- tune's|frowns, we feel|no cares,|we fear not for- tune's|frowns,|
 z2 d2 e2 d2 x4 |[M:3/2] B3 c d2 e2 d2 c2 | B2 e2 d2 c4 B2 |[M:4/4] c4 z2 B2 x4 |[M:4/4] A4 d4 | %33
w: we have no|en- vy which sweet mirth con-|founds, which sweet mirth con-|founds, sweet|mirth con-|
 d8- | d8 | d8 |[M:4/4] z2 A2 _B2 A2 | F3 G A2[Q:1/4=124] _B2 x4 | %38
w: founds,|||we have no|en- vy which sweet|
[Q:1/4=120] c6[Q:1/4=116] (_B2 x4[Q:1/4=124][Q:1/4=120][Q:1/4=116] | %39
w: mirth con\-|
[Q:1/4=114][Q:1/4=114] A2[Q:1/4=112][Q:1/4=112] G2[Q:1/4=109][Q:1/4=109] A4)[Q:1/4=108] x8 | %40
w: |
[Q:1/4=108] !fermata!=B8 x8 |] %41
w: founds.|
V:2
 z8 | z2 D2 EDEF | G8 |[M:4/4] F2 G4 F2 | G2 G2 AGAB | c8 | z2 _B2 A2 G2 | F2 G2 A3 G | =B4 z2 de | %9
w: |How mer- ri- ly we|live|that shep- herds|be, how mer- ri- ly we|live|that shep- herds|be, that shep- herds|be, roun- de-|
 d2 Bc B2 de | d2 Bc B2 GA | G4 z2 dd | d2 c2 A2 A2 | B2 de d2 BB |[M:3/2] A2 G2 G2 F2 G4 | %15
w: lays still we sing, roun- de-|lays still we sing, still we|sing, still we|sing with mer- ry|glee, roun- de- lays still we|sing with mer- ry glee,|
[M:4/4] z2 G3 GGG x |[M:4/4] G2 B2 BA A2- | A2 ^G2 A4 | z2 =F3 EFE | =F2 E2 ED G2- | %20
w: On the plea- sant|downs where as our flocks|* we see,|on the plea- sant|downs where as our flocks|
 G2 !courtesy!^F2 G4 | D4 E4 | F4 G2 G2 |[M:3/2] (A2 _B2 A2) =F2 E3 E | F4 z2 G4 A2- | %25
w: * we see,|we feel|no cares, we|fear * * not for- tune's|frowns, we feel|
[M:4/4] A2 B2 c2 B2 x4 |[M:3/2] d2 B2 A2 G2 A3 A |[M:4/4] B2 d2 e2 d2 x4 | B2 BB c2 B2 x4 | %29
w: * no cares, we|fear not, fear not for- tune's|frowns, we have no|en- vy, we have no|
[M:3/2] G3 A B2 c2 A2 (d2 | d2 c2 B2 c2 d4) |[M:4/4] e4 z2 d2 x4 |[M:4/4] d4 B4 | A2 A2 _B2 A2 | %34
w: en- vy which sweet mirth con\-||founds, sweet|mirth con-|founds, we have no|
 F3 G A2 G2 | F2 _B2 A2 G2 |[M:4/4] F2 F2 G2 F2 | D3 E F2 G2 x4 | A4 (G4- x4 | G2 FE F4) x8 | %40
w: en- vy which sweet|mirth, sweet mirth con-|founds, we have no|en- vy which sweet|mirth con\-||
 !fermata!G8 x8 |] %41
w: founds.|
V:3
 z8 | z8 | z2 G,2 B,A,B,C |[M:4/4] D2 E2 D2 D2 | G,4 z4 | z2 A,2 EDE=F | G2 G2 F2 G2 | %7
w: ||How mer- ri- ly we|live that shep- herds|be,|how mer- ri- ly we|live that shep- herds|
 D2 B,2 D2 D2 | G,8- | G,8 | z2 GA G2 E=F | E2 CD C2 B,B, | D2 E2 D2 D2 | G,4 z2 GG | %14
w: be, that shep- herds|be,||roun- de- lays still we|sing, roun- de- lays still we|sing with mer- ry|glee, still we|
[M:3/2] F2 G2 D3 D G,4 |[M:4/4] z2 C3 B,CB, x |[M:4/4] C2 G,2 A,2 A,2 | E2 E2 A,4 | z2 D3 ^CDC | %19
w: sing with mer- ry glee,|On the plea- sant|downs where as our|flocks we see,|on the plea- sant|
 D2 A,2 B,2 G,2 | D2 D2 G,4 | B,4 C4 | D4 E2 G2 |[M:3/2] F2 G2 A4 A,4 | D4 B,4 C4 | %25
w: downs where as our|flocks we see,|we feel|no cares, we|fear not for- tune's|frowns, we feel|
[M:4/4] D4 E2 G2 x4 |[M:3/2] F2 G2 D6 D2 |[M:4/4] G,2 B,2 C2 B,2 x4 | G,4 G,4 x4 | %29
w: no cares, we|fear not for- tune's|frowns, we have no|en- vy,|
[M:3/2] G,4 G,4 G,4- | G,8 G,4 |[M:4/4] C4 z2 G2 x4 |[M:4/4] F4 G4 | D2 F2 G2 F2 | D3 E F2 G2 | %35
w: which sweet mirth|* con-|founds, sweet|mirth con-|founds, we have no|en- vy which sweet|
 D2 G2 F2 G2 |[M:4/4] D8- | D4 D4 x4 | C4 C4 x4 | D6 D2 x8 | !fermata!G,8 x8 |] %41
w: mirth, sweet mirth, no|en\-|* vy|which sweet|mirth con-|founds.|
V:4
 G4 BABc | d4 c4 | B3 c d2 B2 |[M:4/4] A2 G2 A2 A2 | B2 B2 cBcd | e8 | x2 d2 d2 =B2 | A2 G2 G2 F2 | %8
 G2 de d2 Bc | B2 de d2 Bc | B4 x4 | x2 E=F E2 GG | F2 G2 G2 F2 | G2 Bc B2 dd | %14
[M:4/4] d2 B2 [GA]2 A2 x4 |[M:4/4] B4 z2 e3 | ded x5 |[M:4/4] e2 d2 c3 A | [AB]2 B2 ^c4 | %19
 z2 A3 AAA | A2 A2 G2 B2 |[M:4/4] A3 A B4 | z2 G4 A2- | A2 B2 c2 B2 x4 |[M:3/2] d4 ^c2 d4 c2 | %25
 d4 D4 E4 |[M:3/2] F4 G4 x4 |[M:3/2] A2 G2 F2 G4 F2 |[M:3/2] G8 x2 d2 | e2 d2 x8 | %30
[M:3/2] B3 c d2 e2 d2 [cd]2 | B2 e2 d2 c4 B2 |[M:3/2] c4 z2 B2 |[M:4/4] A4 d4 | d8- | d8 | d8 | %37
[M:3/2] x2 A2 _B2 A2 F3 G | A2 _B2 c6 B2 | [GA]2 G2 A4 B8 | x16 |] %41
V:5
 x8 | z2 D2 EDEF | G8 |[M:4/4] F2 G4 F2 | G2 G2 AGAB | c8 | x2 _B2 A2 G2 | F2 G2 A3 G | =B4 x2 de | %9
 d2 Bc B2 de | d2 Bc B2 GA | G4 x2 dd | d2 c2 [GA]2 A2 | B2 de d2 BB |[M:4/4] A2 G2 G2 F2 x4 | %15
[M:4/4] G4 z2 G3 | GGG x5 |[M:4/4] G2 B2 BA A2- | A2 ^G2 A4 | z2 =F3 EFE | =F2 E2 ED G2- | %21
[M:4/4] G2 !courtesy!^F2 G4 |[I:staff +1] D4 E4 | F4[I:staff -1] G2 G2 x4 | %24
[M:3/2] A2 _B2 A2 =F2 E3 E | F4 z2 G4 A2- |[M:3/2] A2 B2 c2 B2 x4 |[M:3/2] d2 B2 A2 G2 A3 A | %28
[M:3/2] B2 d2 e2 d2 B2 BB | c2 B2 x8 |[M:3/2] G3 A B2 c2 A2 d2 | d2 c2 B2 c2 d4 |[M:3/2] e4 z2 d2 | %33
[M:4/4] d4 B4 | A2 A2 _B2 A2 | F3 G A2 G2 | F2 _B2 A2 G2 |[M:3/2] F2 F2 G2 F2 D3 E | F2 G2 A4 G4- | %39
 G2 FE F4 !fermata!G8 | x16 |] %41
V:6
 x8 | x8 | x2 G,2 B,A,B,C |[M:4/4] x8 | x8 | x8 | x8 |[I:staff -1] D2 B,2 D2 D2 | %8
[I:staff +1] G,8- | G,8 | x2[I:staff -1] GA G2 E=F | E2 CD[I:staff +1] C2 B,B, | D2 E2 D2 D2 | %13
 G,4 x2[I:staff -1] GG |[M:4/4] F2 G2[I:staff +1] D3 D x4 |[M:4/4] G,4 z2 C3 | B,CB, x5 | %17
[M:4/4] C2 G,2 A,2 A,2 | E2 E2 A,4 | z2 D3 ^CDC | D2 A,2 B,2 G,2 | %21
[M:4/4][I:staff -1] D2 D2[I:staff +1] G,4 | B,4 C4 | D4[I:staff -1] E2 G2[I:staff +1] x4 | %24
[M:3/2][I:staff -1] F2 G2 A4[I:staff +1] A,4 | D4 B,4 C4 | %26
[M:3/2][I:staff -1] D4 E2 G2[I:staff +1] x4 |[M:3/2][I:staff -1] F2 G2[I:staff +1] D6 D2 | %28
[M:3/2] G,2 B,2 C2 B,2 G,4 | G,4 x8 |[M:3/2] G,4 G,4 G,4- | G,8 G,4 |[M:3/2] C4 z2[I:staff -1] G2 | %33
[M:4/4] F4 G4 | D2 F2 G2 F2 | D3 E F2 G2 | D2 G2 F2 G2 |[M:3/2][I:staff +1] D8- D4 | D4 C4 C4 | %39
 D6 D2 !fermata!G,8 | x16 |] %41
V:7
 z8 | z8 | z2 x2 x4 |[M:4/4] D2 E2 D2 D2 | G,4 z4 | z2 A,2[I:staff -1] EDE=F | G2 G2 F2 G2 | %7
[I:staff +1] z8 | x8 | x8 | z8 | z4 x4 | x8 | z8 |[M:4/4] z4 x4 x4 |[M:4/4] x8 x | x8 |[M:4/4] x8 | %18
 x8 | x8 | x8 |[M:4/4] z4 x4 | x8 | x4 z4 x4 |[M:3/2] z4 z4 x4 | x8 x4 |[M:3/2] z8 x4 | %27
[M:3/2] z4 x4 x4 |[M:3/2] x8 x4 | x8 x4 |[M:3/2] x12 | x8 x4 |[M:3/2] x4 z4 |[M:4/4] z8 | z8 | z8 | %36
 x8 |[M:3/2] x8 x4 | x8 x4 | x8 x8 | x8 x8 |] %41

